public/images/icons/user-circle-link.svg

<svg width="24" height="24" viewBox="0 0 24 24" fill="none" xmlns="http://www.w3.org/2000/svg">
<path fill-rule="evenodd" clip-rule="evenodd" d="M22 5.81C22 7.9142 20.2942 9.62 18.19 9.62C16.0858 9.62 14.38 7.9142 14.38 5.81C14.38 3.7058 16.0858 2 18.19 2C20.2942 2 22 3.7058 22 5.81ZM16.8623 5.41763C16.9551 5.51083 16.9547 5.6616 16.8615 5.75439C16.4795 6.13476 16.4799 6.75445 16.8623 7.13848C17.2426 7.52055 17.8623 7.52005 18.2464 7.13773C18.6289 6.75688 18.6295 6.13748 18.246 5.75401C18.153 5.66102 18.153 5.51025 18.246 5.41725C18.339 5.32426 18.4898 5.32426 18.5827 5.41725C19.1518 5.98629 19.1523 6.90782 18.5824 7.47524C18.0139 8.04118 17.0927 8.04492 16.5248 7.47449C15.9588 6.90602 15.9551 5.98477 16.5255 5.41688C16.6187 5.32409 16.7695 5.32443 16.8623 5.41763ZM18.0603 4.47942C18.4619 4.07613 19.1154 4.0767 19.5206 4.48014C19.9239 4.88171 19.9233 5.53527 19.5199 5.94043C19.4271 6.03362 19.4274 6.18439 19.5206 6.27719C19.6138 6.36998 19.7646 6.36966 19.8573 6.27647C20.4445 5.6868 20.4482 4.73169 19.8566 4.14266C19.267 3.5555 18.3118 3.55184 17.7228 4.14338C17.1352 4.73351 17.1347 5.68834 17.7232 6.27683C17.8162 6.36982 17.9669 6.36982 18.0599 6.27683C18.1529 6.18384 18.1529 6.03306 18.0599 5.94007C17.6578 5.53796 17.6573 4.88412 18.0603 4.47942Z" fill="#24272A"/>
<path d="M21.0476 12.4762C21.0476 11.2286 20.8095 10.0286 20.3619 8.93333C20.0667 9.14286 19.7333 9.30476 19.381 9.41905C19.2762 9.45714 19.1714 9.48571 19.0571 9.51429C19.419 10.4286 19.619 11.4286 19.619 12.4762C19.619 14.6857 18.7238 16.6952 17.2762 18.1619C17 17.8095 16.6476 17.4857 16.2286 17.2095C13.6476 15.4762 9.41905 15.4762 6.81905 17.2095C6.4 17.4857 6.05714 17.8095 5.77143 18.1619C4.32381 16.6952 3.42857 14.6857 3.42857 12.4762C3.42857 8.00952 7.05714 4.38095 11.5238 4.38095C12.5619 4.38095 13.5619 4.58095 14.4762 4.94286C14.5048 4.82857 14.5333 4.72381 14.5714 4.60952C14.6857 4.25714 14.8476 3.93333 15.0667 3.6381C13.9714 3.19048 12.7714 2.95238 11.5238 2.95238C6.27619 2.95238 2 7.22857 2 12.4762C2 15.2381 3.19048 17.7238 5.07619 19.4667C5.07619 19.4762 5.07619 19.4762 5.06667 19.4857C5.1619 19.581 5.27619 19.6571 5.37143 19.7429C5.42857 19.7905 5.47619 19.8381 5.53333 19.8762C5.70476 20.019 5.89524 20.1524 6.07619 20.2857C6.14286 20.3333 6.2 20.3714 6.26667 20.419C6.44762 20.5429 6.6381 20.6571 6.8381 20.7619C6.90476 20.8 6.98095 20.8476 7.04762 20.8857C7.2381 20.9905 7.4381 21.0857 7.64762 21.1714C7.72381 21.2095 7.8 21.2476 7.87619 21.2762C8.08571 21.3619 8.29524 21.4381 8.50476 21.5048C8.58095 21.5333 8.65714 21.5619 8.73333 21.581C8.9619 21.6476 9.19048 21.7048 9.41905 21.7619C9.48571 21.781 9.55238 21.8 9.62857 21.8095C9.89524 21.8667 10.1619 21.9048 10.4381 21.9333C10.4762 21.9333 10.5143 21.9429 10.5524 21.9524C10.8762 21.981 11.2 22 11.5238 22C11.8476 22 12.1714 21.981 12.4857 21.9524C12.5238 21.9524 12.5619 21.9429 12.6 21.9333C12.8762 21.9048 13.1429 21.8667 13.4095 21.8095C13.4762 21.8 13.5429 21.7714 13.619 21.7619C13.8476 21.7048 14.0857 21.6571 14.3048 21.581C14.381 21.5524 14.4571 21.5238 14.5333 21.5048C14.7429 21.4286 14.9619 21.3619 15.1619 21.2762C15.2381 21.2476 15.3143 21.2095 15.3905 21.1714C15.5905 21.0857 15.7905 20.9905 15.9905 20.8857C16.0667 20.8476 16.1333 20.8 16.2 20.7619C16.3905 20.6476 16.581 20.5429 16.7714 20.419C16.8381 20.381 16.8952 20.3333 16.9619 20.2857C17.1524 20.1524 17.3333 20.019 17.5048 19.8762C17.5619 19.8286 17.6095 19.781 17.6667 19.7429C17.7714 19.6571 17.8762 19.5714 17.9714 19.4857C17.9714 19.4762 17.9714 19.4762 17.9619 19.4667C19.8571 17.7238 21.0476 15.2381 21.0476 12.4762Z" fill="#24272A"/>
<path d="M11.5238 7.6478C9.55239 7.6478 7.95239 9.2478 7.95239 11.2192C7.95239 13.1525 9.46668 14.724 11.4762 14.7811C11.5048 14.7811 11.5429 14.7811 11.5619 14.7811C11.581 14.7811 11.6095 14.7811 11.6286 14.7811C11.6381 14.7811 11.6476 14.7811 11.6476 14.7811C13.5714 14.7145 15.0857 13.1525 15.0952 11.2192C15.0952 9.2478 13.4952 7.6478 11.5238 7.6478Z" fill="#24272A"/>
</svg>

<svg xmlns="http://www.w3.org/2000/svg" width="24" height="24" fill="none" viewBox="0 0 24 24"><path fill="#24272A" fill-rule="evenodd" d="M22 5.81a3.81 3.81 0 1 1-7.62 0 3.81 3.81 0 0 1 7.62 0m-5.138-.392a.24.24 0 0 1 0 .336.979.979 0 1 0 1.384 0 .238.238 0 0 1 .337-.337 1.455 1.455 0 1 1-2.057 0 .24.24 0 0 1 .336 0m1.198-.939a1.032 1.032 0 1 1 1.46 1.461.238.238 0 0 0 .337.336 1.509 1.509 0 1 0-2.134 0 .238.238 0 1 0 .337-.336 1.034 1.034 0 0 1 0-1.46" clip-rule="evenodd"/><path fill="#24272A" d="M21.048 12.476a9.4 9.4 0 0 0-.686-3.543 3.6 3.6 0 0 1-.981.486 3 3 0 0 1-.324.095 8.08 8.08 0 0 1-1.78 8.648 4.4 4.4 0 0 0-1.048-.953c-2.581-1.733-6.81-1.733-9.41 0-.419.277-.762.6-1.048.953a8.08 8.08 0 0 1-2.342-5.686c0-4.466 3.628-8.095 8.095-8.095 1.038 0 2.038.2 2.952.562.029-.114.057-.22.095-.333.115-.353.277-.677.496-.972a9.4 9.4 0 0 0-3.543-.686C6.276 2.952 2 7.23 2 12.476c0 2.762 1.19 5.248 3.076 6.99 0 .01 0 .01-.01.02.096.095.21.171.305.257.058.048.105.095.162.133.172.143.362.276.543.41.067.047.124.085.19.133q.272.186.572.343c.067.038.143.086.21.124q.285.157.6.285c.076.038.152.077.228.105q.315.129.629.229c.076.028.152.057.228.076.229.067.457.124.686.18.067.02.133.039.21.049.266.057.533.095.81.123.037 0 .075.01.113.02.324.028.648.047.972.047s.647-.019.962-.048c.038 0 .076-.01.114-.019.276-.028.543-.066.81-.123.066-.01.133-.039.209-.048.229-.057.467-.105.686-.181q.114-.045.228-.076c.21-.076.429-.143.629-.229.076-.028.152-.067.228-.105q.3-.127.6-.285c.077-.038.143-.086.21-.124.19-.114.381-.22.571-.343.067-.038.124-.086.19-.133.191-.134.372-.267.544-.41.057-.047.105-.095.162-.133.104-.086.21-.172.304-.257 0-.01 0-.01-.01-.02 1.896-1.742 3.087-4.228 3.087-6.99"/><path fill="#24272A" d="M11.524 7.648a3.573 3.573 0 0 0-3.572 3.571c0 1.934 1.515 3.505 3.524 3.562h.172a3.565 3.565 0 0 0 3.447-3.562c0-1.971-1.6-3.571-3.571-3.571"/></svg>
